assets/day17.svg

<svg width="33" height="24" viewBox="0 0 33 24" fill="none" xmlns="http://www.w3.org/2000/svg">
<mask id="path-1-inside-1_108_8681" fill="white">
<path d="M11.0114 0.727272V24H6.09091V5.39773H5.95455L0.625 8.73864V4.375L6.38636 0.727272H11.0114ZM17.4631 24L27.1108 4.90909V4.75H15.8722V0.727272H32.2017V4.80682L22.5426 24H17.4631Z"/>
</mask>
<path d="M11.0114 0.727272V24H6.09091V5.39773H5.95455L0.625 8.73864V4.375L6.38636 0.727272H11.0114ZM17.4631 24L27.1108 4.90909V4.75H15.8722V0.727272H32.2017V4.80682L22.5426 24H17.4631Z" fill="url(#paint0_linear_108_8681)"/>
<path d="M11.0114 0.727272H12.0114V-0.272728H11.0114V0.727272ZM11.0114 24V25H12.0114V24H11.0114ZM6.09091 24H5.09091V25H6.09091V24ZM6.09091 5.39773H7.09091V4.39773H6.09091V5.39773ZM5.95455 5.39773V4.39773H5.66702L5.42341 4.55044L5.95455 5.39773ZM0.625 8.73864H-0.375V10.5457L1.15614 9.58592L0.625 8.73864ZM0.625 4.375L0.0900668 3.53011L-0.375 3.82456V4.375H0.625ZM6.38636 0.727272V-0.272728H6.09641L5.85143 -0.117622L6.38636 0.727272ZM10.0114 0.727272V24H12.0114V0.727272H10.0114ZM11.0114 23H6.09091V25H11.0114V23ZM7.09091 24V5.39773H5.09091V24H7.09091ZM6.09091 4.39773H5.95455V6.39773H6.09091V4.39773ZM5.42341 4.55044L0.0938647 7.89135L1.15614 9.58592L6.48568 6.24501L5.42341 4.55044ZM1.625 8.73864V4.375H-0.375V8.73864H1.625ZM1.15993 5.21989L6.9213 1.57217L5.85143 -0.117622L0.0900668 3.53011L1.15993 5.21989ZM6.38636 1.72727H11.0114V-0.272728H6.38636V1.72727ZM17.4631 24L16.5706 23.549L15.8373 25H17.4631V24ZM27.1108 4.90909L28.0033 5.36012L28.1108 5.14742V4.90909H27.1108ZM27.1108 4.75H28.1108V3.75H27.1108V4.75ZM15.8722 4.75H14.8722V5.75H15.8722V4.75ZM15.8722 0.727272V-0.272728H14.8722V0.727272H15.8722ZM32.2017 0.727272H33.2017V-0.272728H32.2017V0.727272ZM32.2017 4.80682L33.095 5.25636L33.2017 5.04426V4.80682H32.2017ZM22.5426 24V25H23.1589L23.4359 24.4495L22.5426 24ZM18.3556 24.451L28.0033 5.36012L26.2183 4.45806L16.5706 23.549L18.3556 24.451ZM28.1108 4.90909V4.75H26.1108V4.90909H28.1108ZM27.1108 3.75H15.8722V5.75H27.1108V3.75ZM16.8722 4.75V0.727272H14.8722V4.75H16.8722ZM15.8722 1.72727H32.2017V-0.272728H15.8722V1.72727ZM31.2017 0.727272V4.80682H33.2017V0.727272H31.2017ZM31.3084 4.35728L21.6494 23.5505L23.4359 24.4495L33.095 5.25636L31.3084 4.35728ZM22.5426 23H17.4631V25H22.5426V23Z" fill="url(#paint1_linear_108_8681)" mask="url(#path-1-inside-1_108_8681)"/>
<defs>
<linearGradient id="paint0_linear_108_8681" x1="28.4737" y1="20.4615" x2="28.4737" y2="4.24359" gradientUnits="userSpaceOnUse">
<stop stop-color="#FFF0DA"/>
<stop offset="0.0416667" stop-color="#94641E"/>
<stop offset="0.828125" stop-color="#FFF2DB"/>
<stop offset="0.9375" stop-color="#EAC885"/>
<stop offset="0.979167" stop-color="#FBF5D1"/>
<stop offset="0.9999" stop-color="#BD9A4B"/>
<stop offset="1" stop-color="#ECD8A3"/>
</linearGradient>
<linearGradient id="paint1_linear_108_8681" x1="16.5" y1="4.24359" x2="16.5" y2="21.3462" gradientUnits="userSpaceOnUse">
<stop stop-color="#FCF6D1"/>
<stop offset="0.104167" stop-color="#BD9457"/>
<stop offset="0.25" stop-color="#E3CA89"/>
<stop offset="0.697917" stop-color="#FEE8C8"/>
<stop offset="0.854167" stop-color="#4D3A1A"/>
<stop offset="1" stop-color="#FCF0D1"/>
</linearGradient>
</defs>
</svg>

<svg xmlns="http://www.w3.org/2000/svg" width="33" height="24" fill="none"><mask id="c" fill="#fff"><path d="M11.011.727V24h-4.92V5.398h-.136l-5.33 3.34V4.376L6.386.727zM17.463 24l9.648-19.09v-.16H15.872V.727h16.33v4.08L22.542 24z"/></mask><path fill="url(#a)" d="M11.011.727V24h-4.92V5.398h-.136l-5.33 3.34V4.376L6.386.727zM17.463 24l9.648-19.09v-.16H15.872V.727h16.33v4.08L22.542 24z"/><path fill="url(#b)" d="M11.011.727h1v-1h-1zm0 23.273v1h1v-1zm-4.92 0h-1v1h1zm0-18.602h1v-1h-1zm-.136 0v-1h-.288l-.244.152zm-5.33 3.34h-1v1.808l1.531-.96zm0-4.363L.09 3.53l-.465.295v.55zM6.386.727v-1h-.29l-.245.155zm3.625 0V24h2V.727zm1 22.273h-4.92v2h4.92zm-3.92 1V5.398h-2V24zm-1-19.602h-.136v2h.136zm-.668.152L.093 7.891l1.063 1.695 5.33-3.341zM1.625 8.74V4.375h-2v4.364zm-.465-3.52L6.92 1.573l-1.07-1.69L.091 3.53zm5.226-3.492h4.625v-2H6.386zM17.463 24l-.892-.451L15.837 25h1.626zm9.648-19.09.892.45.108-.213V4.91zm0-.16h1v-1h-1zm-11.239 0h-1v1h1zm0-4.023v-1h-1v1zm16.33 0h1v-1h-1zm0 4.08.893.45.107-.213v-.237zM22.542 24v1h.617l.277-.55zm-4.186.451 9.647-19.09-1.785-.903-9.647 19.091zM28.11 4.909V4.75h-2v.16zm-1-1.159H15.872v2h11.239zm-10.239 1V.727h-2V4.75zm-1-3.023h16.33v-2h-16.33zm15.33-1v4.08h2V.727zm.106 3.63L21.65 23.551l1.787.899 9.659-19.194zM22.543 23h-5.08v2h5.08z" mask="url(#c)"/><defs><linearGradient id="a" x1="28.474" x2="28.474" y1="20.462" y2="4.244" gradientUnits="userSpaceOnUse"><stop stop-color="#FFF0DA"/><stop offset=".042" stop-color="#94641E"/><stop offset=".828" stop-color="#FFF2DB"/><stop offset=".938" stop-color="#EAC885"/><stop offset=".979" stop-color="#FBF5D1"/><stop offset="1" stop-color="#BD9A4B"/><stop offset="1" stop-color="#ECD8A3"/></linearGradient><linearGradient id="b" x1="16.5" x2="16.5" y1="4.244" y2="21.346" gradientUnits="userSpaceOnUse"><stop stop-color="#FCF6D1"/><stop offset=".104" stop-color="#BD9457"/><stop offset=".25" stop-color="#E3CA89"/><stop offset=".698" stop-color="#FEE8C8"/><stop offset=".854" stop-color="#4D3A1A"/><stop offset="1" stop-color="#FCF0D1"/></linearGradient></defs></svg>
